public/images/expo.svg

<svg height="800" preserveAspectRatio="xMidYMid" viewBox="0 -183.5 512 512" width="800" xmlns="http://www.w3.org/2000/svg"><g fill="#f6f6f6"><path d="m66.6783973 46.5413294c1.1507088-1.6961583 2.4104084-1.911843 3.4323099-1.911843s2.72432.2156847 3.8754791 1.911843c9.0705578 12.4587309 24.0428331 37.2771101 35.0873857 55.5844146 7.202401 11.938997 12.734361 21.108638 13.869306 22.27556 4.26055 4.3808 10.103719 1.650626 13.499098-3.318365 3.342685-4.891976 4.270458-8.326988 4.270458-11.991692 0-2.495979-48.4275007-92.5622496-53.3046144-100.05915124-4.690208-7.21075117-6.2178809-9.03209576-14.2453696-9.03209576h-6.0071053c-8.0036188 0-9.1601825 1.82134459-13.8508408 9.03209576-4.8766634 7.49690164-53.3045039 97.56317224-53.3045039 100.05915124 0 3.664704.92797748 7.099716 4.27073475 11.991692 3.39535209 4.968991 9.23847575 7.699165 13.49889055 3.318365 1.1350808-1.166922 6.6670402-10.336563 13.8695315-22.27556 11.0443724-18.3073045 25.9686827-43.1256837 35.0392405-55.5844146z"/><path d="m387.841898 39.3946846c19.94577 0 35.807536 18.0069939 35.807536 40.2789514 0 22.271958-15.861766 40.436943-35.807536 40.436943-10.679298 0-19.003133-4.422685-24.342783-12.478547v36.488052h-22.14405v-103.1457982h22.14405v10.8990363c5.33965-8.0558173 13.663485-12.4786375 24.342783-12.4786375zm84.110734 0c22.613342 0 40.047368 17.3751174 40.047368 40.4370331 0 23.0614653-17.434026 40.2788613-40.047368 40.2788613-22.773226 0-40.04917-17.217396-40.04917-40.2788613 0-23.0619157 17.275944-40.4370331 40.04917-40.4370331zm-230.200309-31.43340107v22.42985907h-44.131371v19.9027135h39.262815v22.4295888h-39.262815v23.3776288h44.131371v22.4300393h-67.374788v-110.56982947zm36.032273 33.01300227 12.7213 18.3230221 12.87803-18.3230221h26.384785l-26.070423 37.4355972 27.954793 40.12123h-26.698696l-14.60567-21.0082046-14.60567 21.0082046h-26.384334l27.797612-39.9631483-26.070423-37.5936789zm105.032015 19.5867751c-10.836929 0-19.317496 8.3715754-19.317496 19.1125751 0 10.8990814 8.480567 19.1130254 19.317496 19.1130254 10.679299 0 19.317046-8.3720257 19.317046-19.1130254 0-10.5829179-8.637747-19.1125751-19.317046-19.1125751zm89.136021.1576314c-10.52527 0-18.375311 8.0558623-18.375311 19.1130254 0 10.7409997 7.850041 18.9549437 18.375311 18.9549437 10.363134 0 18.37531-8.213944 18.37531-18.9549437 0-11.0571631-8.012176-19.1130254-18.37531-19.1130254z"/></g></svg>

<?xml version="1.0" encoding="UTF-8" ?>
<!-- Uploaded to: SVG Repo, www.svgrepo.com, Generator: SVG Repo Mixer Tools -->
<svg width="800px"
     height="800px"
     viewBox="0 -183.5 512 512"
     version="1.1"
     xmlns="http://www.w3.org/2000/svg"
     xmlns:xlink="http://www.w3.org/1999/xlink"
     preserveAspectRatio="xMidYMid">
    <g fill="#f6f6f6">
        <path d="M66.6783973,46.5413294 C67.8291061,44.8451711 69.0888057,44.6294864 70.1107072,44.6294864 C71.1326087,44.6294864 72.8350272,44.8451711 73.9861863,46.5413294 C83.0567441,59.0000603 98.0290194,83.8184395 109.073572,102.125744 C116.275973,114.064741 121.807933,123.234382 122.942878,124.401304 C127.203428,128.782104 133.046597,126.05193 136.441976,121.082939 C139.784661,116.190963 140.712434,112.755951 140.712434,109.091247 C140.712434,106.595268 92.2849333,16.5289974 87.4078196,9.03209576 C82.7176116,1.82134459 81.1899387,0 73.16245,0 L67.1553447,0 C59.1517259,0 57.9951622,1.82134459 53.3045039,9.03209576 C48.4278405,16.5289974 0,106.595268 0,109.091247 C0,112.755951 0.927977482,116.190963 4.27073475,121.082939 C7.66608684,126.05193 13.5092105,128.782104 17.7696253,124.401304 C18.9047061,123.234382 24.4366655,114.064741 31.6391568,102.125744 C42.6835292,83.8184395 57.6078395,59.0000603 66.6783973,46.5413294 Z" />
        <path d="M387.841898,39.3946846 C407.787668,39.3946846 423.649434,57.4016785 423.649434,79.673636 C423.649434,101.945594 407.787668,120.110579 387.841898,120.110579 C377.1626,120.110579 368.838765,115.687894 363.499115,107.632032 L363.499115,107.632032 L363.499115,144.120084 L341.355065,144.120084 L341.355065,40.9742858 L363.499115,40.9742858 L363.499115,51.8733221 C368.838765,43.8175048 377.1626,39.3946846 387.841898,39.3946846 Z M471.952632,39.3946846 C494.565974,39.3946846 512,56.769802 512,79.8317177 C512,102.893183 494.565974,120.110579 471.952632,120.110579 C449.179406,120.110579 431.903462,102.893183 431.903462,79.8317177 C431.903462,56.769802 449.179406,39.3946846 471.952632,39.3946846 Z M241.752323,7.96128353 L241.752323,30.3911426 L197.620952,30.3911426 L197.620952,50.2938561 L236.883767,50.2938561 L236.883767,72.7234449 L197.620952,72.7234449 L197.620952,96.1010737 L241.752323,96.1010737 L241.752323,118.531113 L174.377535,118.531113 L174.377535,7.96128353 L241.752323,7.96128353 Z M277.784596,40.9742858 L290.505896,59.2973079 L303.383926,40.9742858 L329.768711,40.9742858 L303.698288,78.409883 L331.653081,118.531113 L304.954385,118.531113 L290.348715,97.5229084 L275.743045,118.531113 L249.358711,118.531113 L277.156323,78.5679647 L251.0859,40.9742858 L277.784596,40.9742858 Z M382.816611,60.5610609 C371.979682,60.5610609 363.499115,68.9326363 363.499115,79.673636 C363.499115,90.5727174 371.979682,98.7866614 382.816611,98.7866614 C393.49591,98.7866614 402.133657,90.4146357 402.133657,79.673636 C402.133657,69.0907181 393.49591,60.5610609 382.816611,60.5610609 Z M471.952632,60.7186923 C461.427362,60.7186923 453.577321,68.7745546 453.577321,79.8317177 C453.577321,90.5727174 461.427362,98.7866614 471.952632,98.7866614 C482.315766,98.7866614 490.327942,90.5727174 490.327942,79.8317177 C490.327942,68.7745546 482.315766,60.7186923 471.952632,60.7186923 Z" />
    </g>
</svg>
